X:3
M:6/8
L:1/8
K:Bb
|:f|fdB fg_a|{_a}(g3 g2)g|gec egb|{b}(a3 a2)g|fbf dfd|ege cec|dBA FBA|BFD

